X: 14252
T: Furze In Bloom, The
R: jig
M: 6/8
K: Edorian
f|:"Bm"edB {A}BAB|"D" def e2 f|"A" edB {A}BAF|"E"AFE {F}E2 f|
"Bm"edB {A}Bef|"D" ~g3f2 f|"A"edB {A}BAF|1 "E"AFE {F}E2 f:|2 "A"AFE Bcd||
|:"Em" ~e3 efg|"G"edB d2A|"D"ded {e}dfa|"A"{a}b2a faf|
"Em" ~e3 efg|"G"edB d2 f|"D"edB {A}BAF|1 "D" AFE Bcd:|2 "A"AFD E3||

